X: 35864
T: Sand Pit, The
R: reel
M: 4/4
K: Gmajor
|:E2 GF EGBG|ceBA BFFG|E2 GF EGBG|A2 Bd eE E2|
E2 GF EGBG|ceBA BF F2|ecdB cABG|A2 Bd eE E2:|
|:eBce B2 AG|Ac (3BAG BF F2|eBce B2 AG|A2 (3Bcd eE E2|
eBce B2 AG|Ac (3BAG BF F2|ecdB cABG|A2 (3Bcd eE E2:|
Begb e2 Be|d2 Bd FAFD|Begb e2 Be|fdAF GE E2|
Begb e2 Be|d2 Bd FAFD|Begb e2 Be|fdAF GE E2|
g>g ge Begb|dfAd FD D2|gbeg Begb|fdAF GE E2|
g>g ge Begb|dfAd FD D2|geBe fdAF|GB (3FGA (3GFE FD|
Begb e3 f|geBG FA (3GFE|Begb e2 Be|fdAF GE E2|
Begb e2 Be|(3fga fd (3FGA FD|Begb e2 Be|fdAF GE E2|
g>g ge Begb|dfAd FD D2|gbeg Begb|fdAF GE E2|
b>b bg ebge|fdAG (3FGA FD|geBe fdAF|GB (3FGA (3GFE FD|
E2 GF EGBG|ceBA BFFG|E2 GF EGBG|A2 Bd eE E2|
E2 GF EGBG|ceBA BF F2|ecdB cABG|A2 Bd eE E2|
eBce B2 AG|Ac (3BAG BF F2|eBce B2 AG|A2 (3Bcd eE E2|
eBce B2 AG|Ac (3BAG BF F2|ecdB cABG|A2 (3Bcd eE E2|
K: D
|:B2 dc Bdfd|gbfe fccd|B2 dc Bdfd|e2 fa bB B2|
B2 dc Bdfd|gbfe fc c2|bgaf gefd|e2 fa bB B2:|
|:bfgb f2 ed|eg (3fed fc c2|bfgb f2 ed|e2 (3fga bB B2|
bfgb f2 ed|eg (3fed fc c2|bgaf gefd|e2 (3fga bB B2:|
K: G
Begb e3 f|geBG FA (3GFE|Begb e2 Be|fdAF GE E2|
Begb e2 Be|(3fga fd (3FGA FD|Begb e2 Be|fdAF GE E2|
g>g ge Begb|dfAd FD D2|gbeg Begb|fdAF GE E2|
b>b bg ebge|fdAG (3FGA FD|geBe fdAF|GB (3FGA (3GFE FD|
E2 GF EGBG|ceBA BFFG|E2 GF EGBG|A2 Bd eE E2|
E2 GF EGBG|ceBA BF F2|ecdB cABG|A2 Bd eE E2|

